X: 18427
T: Hunting The Hare
R: slip jig
M: 9/8
K: Dmajor
|:A|F2 A ABA d2 A|Bcd e2 d cBA|F2 A ABA d2 A|Bcd edc d2:|
|:g|f2 d dd/e/f g2 e|a2 f efd cBA|1 fef def g2 e|a2 f edc d2:|
[2 fd/e/f gfg a2 A|BB/c/d edc d2||

